X: 12501
T: Farewell To Fiunary
R: waltz
M: 3/4
K: Gmajor
V: 1
|:G2 d4|d4 Bc|A4 G2|F6|B2 B4|E2 G4|E4 F2|D6|
E2 G4|G4 AG|A4 d2|BA G2 e2|e4 d2|BAG2 Bc|A4 G2|G6:|
V: 2
|:[G,6D6]|[E6G6]|[D6F6]|[B,6D6]|[B,6E6]|[C6E6]|[^C6E6]|[[D6F6]|
[C6E6]|[B,6D6]|[D6F6]|[E6G6]|[C6G6]|[B,6G6]|[D6F6]|[G,6D6]:|

